!!!COM: Bach, Johann Sebastian
!!!OPR: Joh. Seb. Bachs vierstimmige Choralgesänge
!!!XEN: Four-part Chorales
!!!OTL: 104. Jesu, Jesu, du bist mein
!!!SCT: BWV 357
!!!SCA: Thematisch-systematisches Verzeichnis der musikalischen Werke Johann Sebastian Bach: Bach-Werke-Verzeichnis (Schmieder)
!!!YOR: Bach Gesellschaft Edition xxxix
!!!ENC: Steven Rasmussen
!!!CDT: 1685/3//-1750/7/28/
!!!OCY: Deutschland
!!!YEC: Copyright (c) 1994, 2000 Center for Computer Assisted Research in the Humanities
!!!YEM: Rights to all derivative editions reserved
!!!YEN: United States of America
**kern	**silbe	**kern	**kern	**kern
*I:[SOPRANO]	*I:[SOPRANO]	*I:[ALTO]	*I:[TENORE]	*I:[BASSO]
*clefG2	*	*clefG2	*clefGv2	*clefF4
*k[b-e-]	*	*k[b-e-]	*k[b-e-]	*k[b-e-]
*g:	*	*g:	*g:	*g:
*M4/4	*	*M4/4	*M4/4	*M4/4
=1-	=1-	=1-	=1-	=1-
4.g	Je-	4e-	4c	4C
.	.	4g	4c	4E-
8cc	-su,	.	.	.
4bn	Je-	4f	4d	4D
4cc	-su,	4g	4e-	4C
=2	=2	=2	=2	=2
4dd	du	4g	4d	4BBn
8ee-L	bist	4g	4c	4C
8ddJ	.	.	.	.
2dd;	mein,	2g;	(4c	2GG;
.	.	.	4Bn;)	.
=3	=3	=3	=3	=3
4ee-	weil	4g	4c	4C
4cc	ich	4g	8e-L	8cL
.	.	.	8dJ	8B-J
4ff	muss	8fL	4c	4.A-
.	.	8gJ	.	.
4ee-	auf	4a-	4c	.
.	.	.	.	8G
=4	=4	=4	=4	=4
4dd	Er-	8a-L	4c	4F
.	.	8dJ	.	.
8.ddL	-den	8gL	4Bn	4G
.	.	8fJ	.	.
16ee-Jk	.	.	.	.
4cc	wal-	4e-	4G	4C
4cc;	-len;	4e-;	4G;	4C;
=5	=5	=5	=5	=5
4g	lass	8e-L	4c	4c
.	.	8fJ	.	.
4g	mich	4g	4d	4B-
4cc	ganz	8cL	4e-	4A-
.	.	8dJ	.	.
4b-	dein	4e-	4B-	8GL
.	.	.	.	8FJ
=6	=6	=6	=6	=6
4a-	ei-	4f	4B-	8E-L
.	.	.	.	8DJ
8gL	-gen	4e-	4B-	4E-
8fJ	.	.	.	.
2f;	sein,	2d;	2B-;	2BB-;
=7	=7	=7	=7	=7
4b-	lass	4.f	4B-	8DL
.	.	.	.	8BB-J
4g	mein	.	4B-	4E-
.	.	8e-	.	.
8ccL	Le-	8e-L	8cL	4AA-
8ddJ	.	8fJ	8B-J	.
4ee-	-ben	8gL	8B-L	8GGL
.	.	8fJ	8cJ	8AA-J
=8	=8	=8	=8	=8
4g	dir	4e-	4B-	8BB-L
.	.	.	.	8AA-J
8fL	ge-	4d	8.B-L	4BB-
8e-J	.	.	.	.
.	.	.	16A-Jk	.
4e-	-fal-	4B-	4G	4EE-
4e-;	-len.	4B-;	4G;	4EE-;
=9	=9	=9	=9	=9
4.g	Dir	4e-	4B-	8E-L
.	.	.	.	8DJ
.	.	4e-	8cL	8E-L
8a	will	.	8e-J	8CJ
4bn	ich	4f	4d	8DL
.	.	.	.	8A-J
4b	mich	4g	4d	8GL
.	.	.	.	8FJ
=10	=10	=10	=10	=10
4cc	ganz	4g	4e-	8E-L
.	.	.	.	8CJ
4dd	er-	4a-	4f	8FFL
.	.	.	.	8FJ
4bn	-ge-	4g	4d	8GL
.	.	.	.	8GGJ
4b;	-ben,	4g;	4d;	(8GL
.	.	.	.	8F;J)
=11	=11	=11	=11	=11
4cc	und	4g	4e-	8E-L
.	.	.	.	8DJ
4dd	im	4g	4d	8CL
.	.	.	.	8BBnJ
4ee-	To-	4g	8cL	8CL
.	.	.	8dJ	8GJ
4cc	-de	4g	8e-L	8cL
.	.	.	8dJ	8B-J
=12	=12	=12	=12	=12
4ff	an	4f	4c	4A-
4ee-	dir	4g	4c	8GL
.	.	.	.	8FJ
4dd	kle-	4g	4c	4G
4dd;	-ben,	4g;	4Bn;	4GG;
=13	=13	=13	=13	=13
4cc	dir	4g	4c	4E-
4g	ver-	4g	4e-	4C
4a-	-trau-	(8g	4c	4F
.	.	4f)	.	.
4g	-e	.	4Bn	4G
.	.	8e-	.	.
=14	=14	=14	=14	=14
4.g	ich	8e-L	8cL	4A-
.	.	8dJ	8BnJ	.
.	.	4c	4c	4A-
8f	al-	.	.	.
2g;	-lein,	2d;	2B;	2G;
=15	=15	=15	=15	=15
4cc	Je-	8gL	4c	8E-L
.	.	8fJ	.	8DJ
4g	-su,	8gL	4c	8E-L
.	.	8e-J	.	8CJ
8a-L	Je-	4f	4c	8FL
8g	.	.	.	8GJ
8fJ	.	4c	4A-	8A-L
16e-LL	-su,	.	.	8FJ
16dJJ	.	.	.	.
=16	=16	=16	=16	=16
4e-	du	4c	4G	4G
8dL	bist	4Bn	8.GL	4GG
8cJ	.	.	.	.
.	.	.	16FJk	.
2c;	mein.	2G;	2En;	2C;
==|!	==|!	==|!	==|!	==|!
*-	*-	*-	*-	*-
!!!RWG: Key is interpreted using the Humdrum key tool.
!!!END: 1994/07/08
!!!EMD: Converted from MuseData to Humdrum Dec 19, 2000, by Andreas Kornstaedt using muse2kern.
!!!EED: Craig Stuart Sapp
!!!EEV: 2024/03/31
!!!ONB: Some non-unicode characters
